X:1
T:Young Benjie
M:3/4
L:1/8
K:C
 C2| D2 d2 cA| A2G-F DC| D2 dd cA| G4 FG| A2 A2 GF| D2 F2 GF/2-G/2|\
 A2 A2 GF| D4||
